logo/bubble.svg

<?xml version="1.0" encoding="UTF-8"?>
<svg width="512px" height="116px" viewBox="0 0 512 116" version="1.1" xmlns="http://www.w3.org/2000/svg" preserveAspectRatio="xMidYMid">
    <title>Bubble</title>
    <g>
				<path d="M221.213502,0 L221.213502,43.2951878 C229.040189,34.515664 239.292226,30.0500918 249.693859,30.0500918 C273.356501,30.0500918 291.414681,49.2329839 291.414681,72.8956264 C291.414681,96.5582689 272.232368,115.740582 248.569725,115.740582 C225.143423,115.740582 206.108575,96.9399969 205.73022,73.6041468 L205.72448,72.8956264 L205.72448,0 L221.213502,0 Z M317.176284,0 L317.176284,43.2951878 C325.003261,34.515664 335.255298,30.0500918 345.65693,30.0500918 C369.319283,30.0500918 387.377753,49.2329839 387.377753,72.8956264 C387.377753,96.5582689 368.19515,115.740582 344.532797,115.740582 C321.106494,115.740582 302.071646,96.9399969 301.693292,73.6041468 L301.687552,72.8956264 L301.687552,0 L317.176284,0 Z M135.184759,32.3741685 L135.184759,80.249512 C135.184759,92.4827434 142.283147,100.336051 154.214295,100.336051 C166.296195,100.336051 173.24383,92.7845377 173.24383,80.249512 L173.24383,32.3741685 L190.007449,32.3741685 L190.007449,80.4002645 C190.007449,102.6011 176.566172,115.740582 154.214295,115.740582 C132.466006,115.740582 118.571893,102.148264 118.571893,80.4002645 L118.571893,32.3741685 L135.184759,32.3741685 Z M37.3440816,0 L37.3440816,43.2951878 C45.171058,34.515664 55.4230951,30.0500918 65.8247272,30.0500918 C89.4873697,30.0500918 107.545839,49.2329839 107.545839,72.8956264 C107.545839,96.5582689 88.3632364,115.740582 64.700594,115.740582 C41.2742914,115.740582 22.2394431,96.9399969 21.8610888,73.6041468 L21.8553488,72.8956264 L21.8553488,0 L37.3440816,0 Z M472.129295,30.4106247 C483.75807,30.4106247 493.423879,34.0353394 500.824351,41.435232 C508.224822,48.8357033 512,58.8033072 512,71.4893748 C512,71.7159954 511.998487,71.9471357 511.99531,72.1826464 L511.986695,72.6594507 C511.984875,72.7398745 511.982859,72.8207729 511.980641,72.9021403 L511.964874,73.3959284 C511.89787,75.2267967 511.72799,77.2793119 511.396122,79.4945922 L447.813874,79.4945922 C450.230544,92.1806597 459.140855,100.789176 474.847759,100.789176 C484.060443,100.789176 495.236092,97.3155035 502.485811,92.0299073 L509.433157,104.26256 C501.126434,110.454986 487.987531,115.58954 474.243592,115.58954 C443.736323,115.58954 430.596841,94.2949561 430.596841,72.84933 C430.596841,60.6160986 434.372597,50.4971636 442.075152,42.4925249 C449.777418,34.4881756 459.896642,30.4106247 472.129295,30.4106247 Z M417.355217,0 L417.355217,113.777038 L400.742351,113.777038 L400.742351,0 L417.355217,0 Z M248.569725,46.552136 C234.020808,46.552136 222.226524,58.3464201 222.226524,72.895337 C222.226524,87.4439646 234.020808,99.2382487 248.569725,99.2382487 C263.118642,99.2382487 274.912926,87.4442539 274.912926,72.895337 C274.912926,58.3464201 263.118642,46.552136 248.569725,46.552136 Z M344.532797,46.552136 C329.98388,46.552136 318.189596,58.3464201 318.189596,72.895337 C318.189596,87.4439646 329.98388,99.2382487 344.532797,99.2382487 C359.081424,99.2382487 370.875709,87.4442539 370.875709,72.895337 C370.875709,58.3464201 359.081424,46.552136 344.532797,46.552136 Z M64.700594,46.552136 C50.1516771,46.552136 38.3573929,58.3464201 38.3573929,72.895337 C38.3573929,87.4439646 50.1516771,99.2382487 64.700594,99.2382487 C79.2492215,99.2382487 91.0435057,87.4442539 91.0435057,72.895337 C91.0435057,58.3464201 79.2492215,46.552136 64.700594,46.552136 Z M472.129295,44.7584418 C459.593691,44.7584418 450.230254,53.2156273 447.813874,65.9016949 L495.236092,65.9016949 C493.877294,53.0645854 484.362816,44.7584418 472.129295,44.7584418 Z" fill="#262626"></path>
				<path d="M10.5949194,94.5504541 C4.74335027,94.5504541 -1.24344979e-14,99.2940937 -1.24344979e-14,105.145373 C-1.24344979e-14,110.996653 4.74335027,115.740293 10.5949194,115.740293 C16.4464885,115.740293 21.1898388,110.996653 21.1898388,105.145373 C21.1898388,99.2940937 16.4464885,94.5504541 10.5949194,94.5504541" fill="#0000FF"></path>
    </g>
</svg>

<svg viewBox="0 0 512 116" xmlns="http://www.w3.org/2000/svg"><path fill="#262626" d="M221.21 0v43.29c7.82-8.78 18.07-13.25 28.48-13.25 23.66 0 41.72 19.18 41.72 42.84 0 23.66-19.19 42.84-42.85 42.84 -23.43 0-42.47-18.81-42.84-42.14l-.01-.71V-.03h15.48Zm95.96 0v43.29c7.82-8.78 18.07-13.25 28.48-13.25 23.66 0 41.72 19.18 41.72 42.84 0 23.66-19.19 42.84-42.85 42.84 -23.43 0-42.47-18.81-42.84-42.14l-.01-.71V-.03h15.48Zm-182 32.37v47.87c0 12.23 7.09 20.08 19.02 20.08 12.08 0 19.02-7.56 19.02-20.09V32.35h16.76v48.02c0 22.2-13.45 35.34-35.8 35.34 -21.75 0-35.65-13.6-35.65-35.35V32.33h16.61ZM37.32-.01v43.29c7.82-8.78 18.07-13.25 28.48-13.25 23.66 0 41.72 19.18 41.72 42.84 0 23.66-19.19 42.84-42.85 42.84 -23.43 0-42.47-18.81-42.84-42.14l-.01-.71V-.04H37.3ZM472.1 30.4c11.62 0 21.29 3.62 28.69 11.02 7.4 7.4 11.17 17.36 11.17 30.05 0 .22-.01.45-.01.69l-.01.47c-.01.08-.01.16-.01.24l-.02.49c-.07 1.83-.24 3.88-.57 6.09h-63.59c2.41 12.68 11.32 21.29 27.03 21.29 9.21 0 20.38-3.48 27.63-8.76l6.94 12.23c-8.31 6.19-21.45 11.32-35.19 11.32 -30.51 0-43.65-21.3-43.65-42.75 0-12.24 3.77-22.36 11.47-30.36 7.7-8.01 17.82-12.09 30.05-12.09ZM417.32-.02v113.77H400.7V-.03h16.61ZM248.53 46.53c-14.55 0-26.35 11.79-26.35 26.34 0 14.54 11.79 26.34 26.34 26.34 14.54 0 26.34-11.8 26.34-26.35s-11.8-26.35-26.35-26.35Zm95.96 0c-14.55 0-26.35 11.79-26.35 26.34 0 14.54 11.79 26.34 26.34 26.34 14.54 0 26.34-11.8 26.34-26.35s-11.8-26.35-26.35-26.35Zm-279.84 0c-14.55 0-26.35 11.79-26.35 26.34 0 14.54 11.79 26.34 26.34 26.34 14.54 0 26.34-11.8 26.34-26.35s-11.8-26.35-26.35-26.35Zm407.42-1.8c-12.54 0-21.9 8.45-24.32 21.14h47.42c-1.36-12.84-10.88-21.15-23.11-21.15Z"/><path fill="#00F" d="M10.59 94.55c-5.86 0-10.6 4.74-10.6 10.59s4.74 10.59 10.59 10.59 10.59-4.75 10.59-10.6c0-5.86-4.75-10.6-10.6-10.6"/></svg>
